source/img/science-icon.svg

<svg width="145" height="110" viewBox="0 0 145 110" fill="none" xmlns="http://www.w3.org/2000/svg">
<path d="M143.71 55.1391C148.542 72.9401 139.446 84.5249 122.392 98.3702C116.139 103.739 98.4021 113.346 77.4823 108.825C51.3325 103.174 61.8495 91.0237 43.0898 74.0704C24.3302 57.117 41.3844 16.994 61.8495 8.23479C82.3145 -0.524445 106.19 -4.76278 122.392 8.23479C138.593 21.2324 138.878 37.3381 143.71 55.1391Z" fill="#F4FBFF"/>
<rect x="10.1885" y="58.1265" width="44.4039" height="17.663" rx="3" transform="rotate(-60 10.1885 58.1265)" fill="#AAF0D1"/>
<rect x="18.3423" y="48.3464" width="44.4039" height="13.1891" rx="3" transform="rotate(-60 18.3423 48.3464)" fill="#AAF0D1"/>
<rect x="35.9241" y="13.5512" width="11.0288" height="17.663" rx="3" transform="rotate(-60 35.9241 13.5512)" fill="#AAF0D1"/>
<path fill-rule="evenodd" clip-rule="evenodd" d="M44.8368 102.962C61.3453 102.962 74.728 88.8188 74.728 71.3724C74.728 53.9259 61.3453 39.7828 44.8368 39.7828C35.7696 39.7828 27.6454 44.0493 22.1636 50.7863C23.3619 50.6978 24.5803 50.6523 25.8151 50.6523C43.4492 50.6523 57.7444 59.929 57.7444 71.3724C57.7444 82.8157 43.4492 92.0924 25.8151 92.0924C24.5803 92.0924 23.3619 92.0469 22.1636 91.9584C27.6454 98.6954 35.7696 102.962 44.8368 102.962Z" fill="#AAF0D1"/>
<circle cx="41.1004" cy="46.2365" r="12.5679" fill="#FFC7DB"/>
<circle cx="41" cy="46" r="5" fill="#FF689E"/>
<rect x="7.4729" y="79.8642" width="30.5706" height="3.39673" rx="1.69837" fill="#FF689E"/>
<rect x="12.2285" y="83.261" width="22.4184" height="6.11412" fill="#AAF0D1"/>
<path d="M0 100.016C0 93.3889 5.37258 88.0164 12 88.0164H62.7281C69.3555 88.0164 74.7281 93.3889 74.7281 100.016V102C74.7281 103.657 73.3849 105 71.7281 105H3C1.34315 105 0 103.657 0 102V100.016Z" fill="#FFC7DB"/>
</svg>

<svg width="145" height="110" fill="none" xmlns="http://www.w3.org/2000/svg"><path d="M143.71 55.14c4.832 17.8-4.264 29.385-21.318 43.23-6.253 5.369-23.99 14.976-44.91 10.455-26.15-5.651-15.633-17.801-34.392-34.755-18.76-16.953-1.706-57.076 18.76-65.835 20.464-8.76 44.34-12.998 60.542 0 16.201 12.997 16.486 29.103 21.318 46.904z" fill="#F4FBFF"/><rect x="10.188" y="58.127" width="44.404" height="17.663" rx="3" transform="rotate(-60 10.188 58.127)" fill="#AAF0D1"/><rect x="18.342" y="48.346" width="44.404" height="13.189" rx="3" transform="rotate(-60 18.342 48.346)" fill="#AAF0D1"/><rect x="35.924" y="13.551" width="11.029" height="17.663" rx="3" transform="rotate(-60 35.924 13.551)" fill="#AAF0D1"/><path fill-rule="evenodd" clip-rule="evenodd" d="M44.837 102.962c16.508 0 29.891-14.143 29.891-31.59 0-17.446-13.383-31.59-29.891-31.59-9.067 0-17.192 4.267-22.673 11.004a49.586 49.586 0 013.651-.134c17.634 0 31.93 9.277 31.93 20.72 0 11.444-14.296 20.72-31.93 20.72-1.235 0-2.453-.045-3.651-.134 5.481 6.737 13.606 11.004 22.673 11.004z" fill="#AAF0D1"/><circle cx="41.1" cy="46.236" r="12.568" fill="#FFC7DB"/><circle cx="41" cy="46" r="5" fill="#FF689E"/><rect x="7.473" y="79.864" width="30.571" height="3.397" rx="1.698" fill="#FF689E"/><path fill="#AAF0D1" d="M12.229 83.261h22.418v6.114H12.229z"/><path d="M0 100.016c0-6.627 5.373-12 12-12h50.728c6.628 0 12 5.373 12 12V102a3 3 0 01-3 3H3a3 3 0 01-3-3v-1.984z" fill="#FFC7DB"/></svg>
